!!!COM: Edgard [Edgar] (Victor Achille Charles) Varèse
!!!OTL: [T424_Var-w2p25-26h4m1-7]
**kern	**kern	**dynam	**kern	**dynam	**kern	**dynam	**kern	**dynam	**kern	**dynam	**kern	**dynam	**kern	**dynam	**kern	**kern	**dynam	**kern	**dynam	**kern	**dynam	**kern	**dynam	**kern	**dynam	**kern	**dynam	**kern	**text	**dynam	**kern	**dynam	**kern	**dynam	**kern	**dynam	**kern	**dynam	**kern	**dynam	**kern	**dynam	**kern	**dynam	**kern	**dynam
*part23	*part22	*part22	*part21	*part21	*part20	*part20	*part19	*part19	*part18	*part18	*part17	*part17	*part16	*part16	*part15	*part15	*part15	*part14	*part14	*part13	*part13	*part12	*part12	*part11	*part11	*part10	*part10	*part9	*part9	*part9	*part8	*part8	*part7	*part7	*part6	*part6	*part5	*part5	*part4	*part4	*part3	*part3	*part2	*part2	*part1	*part1
*staff24	*staff23	*	*staff22	*	*staff21	*	*staff20	*	*staff19	*	*staff18	*	*staff17	*	*staff16	*staff15	*	*staff14	*	*staff13	*	*staff12	*	*staff11	*	*staff10	*	*staff9	*staff9	*	*staff8	*	*staff7	*	*staff6	*	*staff5	*	*staff4	*	*staff3	*	*staff2	*	*staff1	*
*I"G.	*I"Tr.	*	*I"T.B.	*	*I"Cttes	*	*I"Cymb.	*	*I"Gr. C.	*	*I"T.M.	*	*I"Ratsche	*	*I"Harp	*	*	*I"Contrabass	*	*I"Violoncello	*	*I"Viola	*	*I"Violin II	*	*I"Violin I	*	*I"Voice	*	*	*I"Trombone	*	*I"Trumpet in C	*	*I"Horn in F	*	*I"Bassoon	*	*I"Clarinet in Bb	*	*I"Oboe	*	*I"Piccolo	*	*I"Flute 1.	*
*I'G.	*I'Tr.	*	*I'T.B.	*	*I'Cttes	*	*I'Cymb.	*	*I'Gr. C.	*	*I'T.M.	*	*I'Rt.	*	*I'Hp.	*	*	*I'Cb.	*	*I'Vc.	*	*I'Vla.	*	*I'Vln. II	*	*I'Vln. I	*	*I'Voice	*	*	*I'Tbn.	*	*I'C Tpt.	*	*I'Hn.	*	*I'Bsn.	*	*I'Cl.	*	*I'Ob.	*	*I'Picc.	*	*I'Fl.	*
!!pagebreak:original
*stria1	*stria1	*	*stria1	*	*stria1	*	*stria1	*	*stria1	*	*stria1	*	*stria1	*	*	*	*	*	*	*	*	*	*	*	*	*	*	*	*	*	*	*	*	*	*	*	*	*	*	*	*	*	*	*	*	*
*clefX	*clefX	*	*clefX	*	*clefX	*	*clefX	*	*clefX	*	*clefX	*	*clefX	*	*clefF4	*clefG2	*	*clefF4	*	*clefF4	*	*clefC3	*	*clefG2	*	*clefG2	*	*clefG2	*	*	*clefF4	*	*clefG2	*	*clefG2	*	*clefF4	*	*clefG2	*	*clefG2	*	*clefG2	*	*clefG2	*
*	*	*	*	*	*	*	*	*	*	*	*	*	*	*	*	*	*	*ITrd0c0	*	*	*	*	*	*	*	*	*	*	*	*	*	*	*	*	*ITrd4c7	*	*	*	*ITrd1c2	*	*	*	*ITrd0c0	*	*	*
*k[]	*k[]	*	*k[]	*	*k[]	*	*k[]	*	*k[]	*	*k[]	*	*k[]	*	*k[]	*k[]	*	*k[]	*	*k[]	*	*k[]	*	*k[]	*	*k[]	*	*k[]	*	*	*k[]	*	*k[]	*	*k[b-]	*	*k[]	*	*k[b-e-]	*	*k[]	*	*k[]	*	*k[]	*
*C:	*C:	*	*C:	*	*C:	*	*C:	*	*C:	*	*C:	*	*C:	*	*	*	*	*	*	*	*	*	*	*	*	*	*	*	*	*	*	*	*	*	*	*	*	*	*	*	*	*	*	*	*	*
*M5/4	*M5/4	*	*M5/4	*	*M5/4	*	*M5/4	*	*M5/4	*	*M5/4	*	*M5/4	*	*M5/4	*M5/4	*	*M5/4	*	*M5/4	*	*M5/4	*	*M5/4	*	*M5/4	*	*M5/4	*	*	*M5/4	*	*M5/4	*	*M5/4	*	*M5/4	*	*M5/4	*	*M5/4	*	*M5/4	*	*M5/4	*
=1	=1	=1	=1	=1	=1	=1	=1	=1	=1	=1	=1	=1	=1	=1	=1	=1	=1	=1	=1	=1	=1	=1	=1	=1	=1	=1	=1	=1	=1	=1	=1	=1	=1	=1	=1	=1	=1	=1	=1	=1	=1	=1	=1	=1	=1	=1
*	*	*	*	*	*	*	*	*	*	*	*	*	*tremolo	*	*	*	*	*	*	*	*	*	*	*	*	*	*	*	*	*	*	*	*	*	*	*	*	*	*	*	*	*	*	*	*	*
!	!	!	!	!	!	!	!	!	!	!	!	!	!	!	!	!	!	!	!	!	!	!	!	!	!	!	!	!	!	!	!	!	!LO:TX:a:t=[sourdine]	!	!	!	!	!	!	!	!	!	!	!	!	!
!	!	!	!	!	!	!	!	!	!	!	!	!	!LO:TX:t=[quarter]=120	!	!	!	!	!	!	!	!	!	!	!	!	!	!	!	!	!	!LO:TX:a:t=[sourdine]	!	!LO:TX:b:t=[ff]	!	!LO:TX:a:t=[sourdine]	!	!	!	!LO:TX:b:t=[ff]	!	!LO:TX:b:t=[ff]	!	!	!	!LO:TX:b:t=[ff]	!
4%5r	4%5r	.	4%5r	.	4%5r	.	4%5r	.	4%5r	.	4%5r	.	32Re/LLL	p	4%5r	4%5r	.	4%5r	.	4%5r	.	4%5r	.	4%5r	.	4%5r	.	4%5r	.	.	2r	.	4dd^	.	2r	.	2r	.	4gg^	.	4ddd^	.	4%5r	.	4g^	.
.	.	.	.	.	.	.	.	.	.	.	.	.	32Re/	.	.	.	.	.	.	.	.	.	.	.	.	.	.	.	.	.	.	.	.	.	.	.	.	.	.	.	.	.	.	.	.	.
.	.	.	.	.	.	.	.	.	.	.	.	.	32Re/	.	.	.	.	.	.	.	.	.	.	.	.	.	.	.	.	.	.	.	.	.	.	.	.	.	.	.	.	.	.	.	.	.
.	.	.	.	.	.	.	.	.	.	.	.	.	32Re/	.	.	.	.	.	.	.	.	.	.	.	.	.	.	.	.	.	.	.	.	.	.	.	.	.	.	.	.	.	.	.	.	.
.	.	.	.	.	.	.	.	.	.	.	.	.	32Re/	.	.	.	.	.	.	.	.	.	.	.	.	.	.	.	.	.	.	.	.	.	.	.	.	.	.	.	.	.	.	.	.	.
.	.	.	.	.	.	.	.	.	.	.	.	.	32Re/	.	.	.	.	.	.	.	.	.	.	.	.	.	.	.	.	.	.	.	.	.	.	.	.	.	.	.	.	.	.	.	.	.
.	.	.	.	.	.	.	.	.	.	.	.	.	32Re/	.	.	.	.	.	.	.	.	.	.	.	.	.	.	.	.	.	.	.	.	.	.	.	.	.	.	.	.	.	.	.	.	.
.	.	.	.	.	.	.	.	.	.	.	.	.	32Re/	.	.	.	.	.	.	.	.	.	.	.	.	.	.	.	.	.	.	.	.	.	.	.	.	.	.	.	.	.	.	.	.	.
!	!	!	!	!	!	!	!	!	!	!	!	!	!	!	!	!	!	!	!	!	!	!	!	!	!	!	!	!	!	!	!	!	!	!	!	!	!	!	!	!	!	!	!	!	!LO:TX:t=[quarter]=120	!
.	.	.	.	.	.	.	.	.	.	.	.	.	32Re/	.	.	.	.	.	.	.	.	.	.	.	.	.	.	.	.	.	.	.	6dd-X~	.	.	.	.	.	6gg-X~	.	6ddd-X~	.	.	.	6g-X~	.
.	.	.	.	.	.	.	.	.	.	.	.	.	32Re/	.	.	.	.	.	.	.	.	.	.	.	.	.	.	.	.	.	.	.	.	.	.	.	.	.	.	.	.	.	.	.	.	.
.	.	.	.	.	.	.	.	.	.	.	.	.	32Re/	.	.	.	.	.	.	.	.	.	.	.	.	.	.	.	.	.	.	.	.	.	.	.	.	.	.	.	.	.	.	.	.	.
.	.	.	.	.	.	.	.	.	.	.	.	.	32Re/	.	.	.	.	.	.	.	.	.	.	.	.	.	.	.	.	.	.	.	.	.	.	.	.	.	.	.	.	.	.	.	.	.
.	.	.	.	.	.	.	.	.	.	.	.	.	32Re/	.	.	.	.	.	.	.	.	.	.	.	.	.	.	.	.	.	.	.	.	.	.	.	.	.	.	.	.	.	.	.	.	.
.	.	.	.	.	.	.	.	.	.	.	.	.	32Re/	.	.	.	.	.	.	.	.	.	.	.	.	.	.	.	.	.	.	.	.	.	.	.	.	.	.	.	.	.	.	.	.	.
.	.	.	.	.	.	.	.	.	.	.	.	.	.	.	.	.	.	.	.	.	.	.	.	.	.	.	.	.	.	.	.	.	6dd-~	.	.	.	.	.	6gg-~	.	6ddd-~	.	.	.	6g-~	.
.	.	.	.	.	.	.	.	.	.	.	.	.	32Re/	.	.	.	.	.	.	.	.	.	.	.	.	.	.	.	.	.	.	.	.	.	.	.	.	.	.	.	.	.	.	.	.	.
.	.	.	.	.	.	.	.	.	.	.	.	.	32Re/	.	.	.	.	.	.	.	.	.	.	.	.	.	.	.	.	.	.	.	.	.	.	.	.	.	.	.	.	.	.	.	.	.
.	.	.	.	.	.	.	.	.	.	.	.	.	32Re/	.	.	.	.	.	.	.	.	.	.	.	.	.	.	.	.	.	2r	.	.	.	2r	.	2r	.	.	.	.	.	.	.	.	.
.	.	.	.	.	.	.	.	.	.	.	.	.	32Re/	.	.	.	.	.	.	.	.	.	.	.	.	.	.	.	.	.	.	.	.	.	.	.	.	.	.	.	.	.	.	.	.	.
.	.	.	.	.	.	.	.	.	.	.	.	.	32Re/	.	.	.	.	.	.	.	.	.	.	.	.	.	.	.	.	.	.	.	.	.	.	.	.	.	.	.	.	.	.	.	.	.
.	.	.	.	.	.	.	.	.	.	.	.	.	.	.	.	.	.	.	.	.	.	.	.	.	.	.	.	.	.	.	.	.	6cc~	.	.	.	.	.	6ff~	.	6ccc~	.	.	.	6f~	.
.	.	.	.	.	.	.	.	.	.	.	.	.	32Re/	.	.	.	.	.	.	.	.	.	.	.	.	.	.	.	.	.	.	.	.	.	.	.	.	.	.	.	.	.	.	.	.	.
.	.	.	.	.	.	.	.	.	.	.	.	.	32Re/	.	.	.	.	.	.	.	.	.	.	.	.	.	.	.	.	.	.	.	.	.	.	.	.	.	.	.	.	.	.	.	.	.
.	.	.	.	.	.	.	.	.	.	.	.	.	32Re/	.	.	.	.	.	.	.	.	.	.	.	.	.	.	.	.	.	.	.	.	.	.	.	.	.	.	.	.	.	.	.	.	.
.	.	.	.	.	.	.	.	.	.	.	.	.	32Re/	.	.	.	.	.	.	.	.	.	.	.	.	.	.	.	.	.	.	.	.	.	.	.	.	.	.	.	.	.	.	.	.	.
.	.	.	.	.	.	.	.	.	.	.	.	.	32Re/JJJ	.	.	.	.	.	.	.	.	.	.	.	.	.	.	.	.	.	.	.	.	.	.	.	.	.	.	.	.	.	.	.	.	.
.	.	.	.	.	.	.	.	.	.	.	.	.	32Re/LLL	.	.	.	.	.	.	.	.	.	.	.	.	.	.	.	.	.	.	.	[2cc^	.	.	.	.	.	[2ff^	<	[2ccc^	<	.	.	[2f^	<
.	.	.	.	.	.	.	.	.	.	.	.	.	32Re/	.	.	.	.	.	.	.	.	.	.	.	.	.	.	.	.	.	.	.	.	.	.	.	.	.	.	.	.	.	.	.	.	.
.	.	.	.	.	.	.	.	.	.	.	.	.	32Re/	.	.	.	.	.	.	.	.	.	.	.	.	.	.	.	.	.	.	.	.	.	.	.	.	.	.	.	.	.	.	.	.	.
.	.	.	.	.	.	.	.	.	.	.	.	.	32Re/	.	.	.	.	.	.	.	.	.	.	.	.	.	.	.	.	.	.	.	.	.	.	.	.	.	.	.	.	.	.	.	.	.
.	.	.	.	.	.	.	.	.	.	.	.	.	32Re/	.	.	.	.	.	.	.	.	.	.	.	.	.	.	.	.	.	.	.	.	.	.	.	.	.	.	.	.	.	.	.	.	.
.	.	.	.	.	.	.	.	.	.	.	.	.	32Re/	.	.	.	.	.	.	.	.	.	.	.	.	.	.	.	.	.	.	.	.	.	.	.	.	.	.	.	.	.	.	.	.	.
.	.	.	.	.	.	.	.	.	.	.	.	.	32Re/	.	.	.	.	.	.	.	.	.	.	.	.	.	.	.	.	.	.	.	.	.	.	.	.	.	.	.	.	.	.	.	.	.
.	.	.	.	.	.	.	.	.	.	.	.	.	32Re/	.	.	.	.	.	.	.	.	.	.	.	.	.	.	.	.	.	.	.	.	.	.	.	.	.	.	.	.	.	.	.	.	.
!	!	!	!	!	!	!	!	!	!	!	!	!	!	!	!	!	!	!	!	!	!	!	!	!	!	!	!	!	!	!	!	!	!	!	!	!	!LO:TX:b:t=sfff	!	!	!	!	!	!	!	!	!
.	.	.	.	.	.	.	.	.	.	.	.	.	32Re/	.	.	.	.	.	.	.	.	.	.	.	.	.	.	.	.	.	4A^	fff	.	.	4c#X^	sf <	4c#X^	.	.	.	.	.	.	.	.	.
.	.	.	.	.	.	.	.	.	.	.	.	.	32Re/	.	.	.	.	.	.	.	.	.	.	.	.	.	.	.	.	.	.	.	.	.	.	.	.	.	.	.	.	.	.	.	.	.
.	.	.	.	.	.	.	.	.	.	.	.	.	32Re/	.	.	.	.	.	.	.	.	.	.	.	.	.	.	.	.	.	.	.	.	.	.	.	.	.	.	.	.	.	.	.	.	.
.	.	.	.	.	.	.	.	.	.	.	.	.	32Re/	.	.	.	.	.	.	.	.	.	.	.	.	.	.	.	.	.	.	.	.	.	.	.	.	.	.	.	.	.	.	.	.	.
.	.	.	.	.	.	.	.	.	.	.	.	.	32Re/	.	.	.	.	.	.	.	.	.	.	.	.	.	.	.	.	.	.	.	.	.	.	.	.	.	.	.	.	.	.	.	.	.
.	.	.	.	.	.	.	.	.	.	.	.	.	32Re/	.	.	.	.	.	.	.	.	.	.	.	.	.	.	.	.	.	.	.	.	.	.	.	.	.	.	.	.	.	.	.	.	.
.	.	.	.	.	.	.	.	.	.	.	.	.	32Re/	.	.	.	.	.	.	.	.	.	.	.	.	.	.	.	.	.	.	.	.	.	.	.	.	.	.	.	.	.	.	.	.	.
.	.	.	.	.	.	.	.	.	.	.	.	.	32Re/JJJ	.	.	.	.	.	.	.	.	.	.	.	.	.	.	.	.	.	.	.	.	.	.	.	.	.	.	.	.	.	.	.	.	.
=2	=2	=2	=2	=2	=2	=2	=2	=2	=2	=2	=2	=2	=2	=2	=2	=2	=2	=2	=2	=2	=2	=2	=2	=2	=2	=2	=2	=2	=2	=2	=2	=2	=2	=2	=2	=2	=2	=2	=2	=2	=2	=2	=2	=2	=2	=2
!	!	!	!	!	!	!	!	!	!	!	!	!	!	!	!	!	!	!	!	!	!	!LO:TX:a:t=(sans sourdine)	!	!	!	!	!	!	!	!	!	!	!	!	!	!	!	!	!	!	!	!	!	!	!	!
4%5r	4%5r	.	4%5r	.	4%5r	.	4%5r	.	4%5r	.	4%5r	.	4%5r	.	4%5r	4%5r	.	2r	.	2r	.	2r	.	4%5r	.	4%5r	.	4%5r	.	.	4A'	.	2.cc_	.	4c#X'	.	4c#X'	.	2.ff_	.	2.ccc_	.	4%5r	.	2.f_	.
.	.	.	.	.	.	.	.	.	.	.	.	.	.	.	.	.	.	.	.	.	.	.	.	.	.	.	.	.	.	.	4A^	.	.	.	4c#^	.	4c#^	.	.	.	.	.	.	.	.	.
.	.	.	.	.	.	.	.	.	.	.	.	.	.	.	.	.	.	[2.e	fff	[2.BB	fff	[2.D#X	fff	.	.	.	.	.	.	.	4A'	.	.	.	4c#'	.	4c#'	.	.	.	.	.	.	.	.	.
!	!	!	!	!	!	!	!	!	!	!	!	!	!	!	!	!	!	!	!	!	!	!	!	!	!	!	!	!	!	!	!	!	!	!	!LO:TX:b:t=sfff	!	!	!	!LO:TX:b:t=sfff	!	!LO:TX:b:t=sfff	!	!	!	!LO:TX:b:t=sfff	!
.	.	.	.	.	.	.	.	.	.	.	.	.	.	.	.	.	.	.	.	.	.	.	.	.	.	.	.	.	.	.	12B-X^L	.	8cc^]	.	12f^L	[	12f^L	.	8ff^]	[	8ccc^]	[	.	.	8f^]	[
.	.	.	.	.	.	.	.	.	.	.	.	.	.	.	.	.	.	.	.	.	.	.	.	.	.	.	.	.	.	.	12A'	.	.	.	12c#'	.	12c#'	.	.	.	.	.	.	.	.	.
.	.	.	.	.	.	.	.	.	.	.	.	.	.	.	.	.	.	.	.	.	.	.	.	.	.	.	.	.	.	.	.	.	8r	.	.	.	.	.	8r	.	8r	.	.	.	8r	.
.	.	.	.	.	.	.	.	.	.	.	.	.	.	.	.	.	.	.	.	.	.	.	.	.	.	.	.	.	.	.	[12A^J	.	.	.	12c#^J	.	[12c#^J	.	.	.	.	.	.	.	.	.
.	.	.	.	.	.	.	.	.	.	.	.	.	.	.	.	.	.	.	.	.	.	.	.	.	.	.	.	.	.	.	4A]	< [	4r	.	4r	.	4c#]	< [	4r	.	4r	.	.	.	4r	.
=3	=3	=3	=3	=3	=3	=3	=3	=3	=3	=3	=3	=3	=3	=3	=3	=3	=3	=3	=3	=3	=3	=3	=3	=3	=3	=3	=3	=3	=3	=3	=3	=3	=3	=3	=3	=3	=3	=3	=3	=3	=3	=3	=3	=3	=3	=3
*M3/4	*M3/4	*	*M3/4	*	*M3/4	*	*M3/4	*	*M3/4	*	*M3/4	*	*M3/4	*	*M3/4	*M3/4	*	*M3/4	*	*M3/4	*	*M3/4	*	*M3/4	*	*M3/4	*	*M3/4	*	*	*M3/4	*	*M3/4	*	*M3/4	*	*M3/4	*	*M3/4	*	*M3/4	*	*M3/4	*	*M3/4	*
4%3r	4%3r	.	4%3r	.	4%3r	.	4%3r	.	4%3r	.	16%3r	f	[32Re/LLL	mf	4%3r	16%3r	fff	2.e_	.	2.BB_	.	2.D#_	.	4r	.	4r	.	4r	.	.	[2.B-X	.	4%3r	.	4%3r	.	[2.f	.	4r	.	4%3r	.	4%3r	.	4r	.
.	.	.	.	.	.	.	.	.	.	.	.	.	[32Re/	.	.	.	.	.	.	.	.	.	.	.	.	.	.	.	.	.	.	.	.	.	.	.	.	.	.	.	.	.	.	.	.	.
.	.	.	.	.	.	.	.	.	.	.	.	.	[32Re/	.	.	.	.	.	.	.	.	.	.	.	.	.	.	.	.	.	.	.	.	.	.	.	.	.	.	.	.	.	.	.	.	.
.	.	.	.	.	.	.	.	.	.	.	.	.	[32Re/	.	.	.	.	.	.	.	.	.	.	.	.	.	.	.	.	.	.	.	.	.	.	.	.	.	.	.	.	.	.	.	.	.
.	.	.	.	.	.	.	.	.	.	.	.	.	[32Re/	.	.	.	.	.	.	.	.	.	.	.	.	.	.	.	.	.	.	.	.	.	.	.	.	.	.	.	.	.	.	.	.	.
.	.	.	.	.	.	.	.	.	.	.	.	.	[32Re/	.	.	.	.	.	.	.	.	.	.	.	.	.	.	.	.	.	.	.	.	.	.	.	.	.	.	.	.	.	.	.	.	.
.	.	.	.	.	.	.	.	.	.	.	8qRe/	.	.	.	.	.	.	.	.	.	.	.	.	.	.	.	.	.	.	.	.	.	.	.	.	.	.	.	.	.	.	.	.	.	.	.
.	.	.	.	.	.	.	.	.	.	.	32%3Re/	.	[32Re/	.	.	(16%3c^	.	.	.	.	.	.	.	.	.	.	.	.	.	.	.	.	.	.	.	.	.	.	.	.	.	.	.	.	.	.
.	.	.	.	.	.	.	.	.	.	.	.	.	[32Re/	.	.	.	.	.	.	.	.	.	.	.	.	.	.	.	.	.	.	.	.	.	.	.	.	.	.	.	.	.	.	.	.	.
.	.	.	.	.	.	.	.	.	.	.	.	.	[32Re/	.	.	.	.	.	.	.	.	.	.	4r	.	4r	.	8ee-X	le	ff	.	.	.	.	.	.	.	.	4r	.	.	.	.	.	4r	.
.	.	.	.	.	.	.	.	.	.	.	32%3r	.	[32Re/	.	.	.	.	.	.	.	.	.	.	.	.	.	.	.	.	.	.	.	.	.	.	.	.	.	.	.	.	.	.	.	.	.
.	.	.	.	.	.	.	.	.	.	.	.	.	[32Re/	.	.	.	.	.	.	.	.	.	.	.	.	.	.	.	.	.	.	.	.	.	.	.	.	.	.	.	.	.	.	.	.	.
.	.	.	.	.	.	.	.	.	.	.	.	.	[32Re/	.	.	.	.	.	.	.	.	.	.	.	.	.	.	.	.	.	.	.	.	.	.	.	.	.	.	.	.	.	.	.	.	.
.	.	.	.	.	.	.	.	.	.	.	8qRe/	.	.	.	.	.	.	.	.	.	.	.	.	.	.	.	.	.	.	.	.	.	.	.	.	.	.	.	.	.	.	.	.	.	.	.
.	.	.	.	.	.	.	.	.	.	.	32%3Re/	.	[32Re/	.	.	16%3A^	.	.	.	.	.	.	.	.	.	.	.	8ee-	Zo-	.	.	.	.	.	.	.	.	.	.	.	.	.	.	.	.	.
.	.	.	.	.	.	.	.	.	.	.	.	.	[32Re/	.	.	.	.	.	.	.	.	.	.	.	.	.	.	.	.	.	.	.	.	.	.	.	.	.	.	.	.	.	.	.	.	.
.	.	.	.	.	.	.	.	.	.	.	.	.	[32Re/	.	.	.	.	.	.	.	.	.	.	.	.	.	.	.	.	.	.	.	.	.	.	.	.	.	.	.	.	.	.	.	.	.
.	.	.	.	.	.	.	.	.	.	.	32%3r	.	[32Re/	.	.	.	.	.	.	.	.	.	.	.	.	.	.	.	.	.	.	.	.	.	.	.	.	.	.	.	.	.	.	.	.	.
.	.	.	.	.	.	.	.	.	.	.	.	.	[32Re/	.	.	.	.	.	.	.	.	.	.	16r	.	16r	.	4aa	-di-	.	.	.	.	.	.	.	.	.	16r	.	.	.	.	.	16r	.
.	.	.	.	.	.	.	.	.	.	.	.	.	[32Re/	.	.	.	.	.	.	.	.	.	.	.	.	.	.	.	.	.	.	.	.	.	.	.	.	.	.	.	.	.	.	.	.	.
.	.	.	.	.	.	.	.	.	.	.	8qRe/	.	.	.	.	.	.	.	.	.	.	.	.	.	.	.	.	.	.	.	.	.	.	.	.	.	.	.	.	.	.	.	.	.	.	.
.	.	.	.	.	.	.	.	.	.	.	32%3Re/	.	[32Re/	.	.	16%3d^	.	.	.	.	.	.	.	(16cc#XLL	.	(16ff#XLL	fff	.	.	.	.	.	.	.	.	.	.	.	(16f#XLL	.	.	.	.	.	(16ccc#XLL	.
.	.	.	.	.	.	.	.	.	.	.	.	.	[32Re/	.	.	.	.	.	.	.	.	.	.	.	.	.	.	.	.	.	.	.	.	.	.	.	.	.	.	.	.	.	.	.	.	.
.	.	.	.	.	.	.	.	.	.	.	.	.	[32Re/	.	.	.	.	.	.	.	.	.	.	16dd	.	16gg	.	.	.	.	.	.	.	.	.	.	.	.	16g	.	.	.	.	.	16ddd	.
.	.	.	.	.	.	.	.	.	.	.	32%3r	.	[32Re/	.	.	.	.	.	.	.	.	.	.	.	.	.	.	.	.	.	.	.	.	.	.	.	.	.	.	.	.	.	.	.	.	.
.	.	.	.	.	.	.	.	.	.	.	.	.	[32Re/	.	.	.	.	.	.	.	.	.	.	16dd#XJJ	.	16gg#XJJ	.	.	.	.	.	.	.	.	.	.	.	.	16g#XJJ	.	.	.	.	.	16ddd#XJJ	.
.	.	.	.	.	.	.	.	.	.	.	.	.	[32Re/JJJ	.	.	.	.	.	.	.	.	.	.	.	.	.	.	.	.	.	.	.	.	.	.	.	.	.	.	.	.	.	.	.	.	.
!!pagebreak:original
=4	=4	=4	=4	=4	=4	=4	=4	=4	=4	=4	=4	=4	=4	=4	=4	=4	=4	=4	=4	=4	=4	=4	=4	=4	=4	=4	=4	=4	=4	=4	=4	=4	=4	=4	=4	=4	=4	=4	=4	=4	=4	=4	=4	=4	=4	=4
*	*	*	*stria1	*	*	*	*	*	*	*	*	*	*	*	*	*	*	*	*	*	*	*	*	*	*	*	*	*	*	*	*	*	*	*	*	*	*	*	*	*	*	*	*	*	*	*
!	!	!	!	!	!	!	!	!	!	!	!	!	!	!	!	!	!	!	!	!	!	!	!	!	!	!	!	!	!	!	!	!	!LO:TX:a:t=(sord.)	!	!LO:TX:a:t=(sord.)	!	!	!	!	!	!	!	!	!	!	!
4%3r	4%3r	.	16%3r	f	4%3r	.	4%3r	.	4%3r	.	4%3r	.	32Re/_LLL	.	4%3r	16%3A)	.	2e_	.	2BB_	.	2D#_	.	[4ee^)	.	[4aa^)	.	[4ee-X	-a-	.	16B-LL]	.	2r	.	2r	.	16fLL]	.	[4a^)	.	2r	.	4%3r	.	[4eee^)	.
.	.	.	.	.	.	.	.	.	.	.	.	.	32Re/_	.	.	.	.	.	.	.	.	.	.	.	.	.	.	.	.	.	.	.	.	.	.	.	.	.	.	.	.	.	.	.	.	.
.	.	.	.	.	.	.	.	.	.	.	.	.	32Re/_	.	.	.	.	.	.	.	.	.	.	.	.	.	.	.	.	.	(16G	.	.	.	.	.	(16d	.	.	.	.	.	.	.	.	.
.	.	.	.	.	.	.	.	.	.	.	.	.	32Re/_	.	.	.	.	.	.	.	.	.	.	.	.	.	.	.	.	.	.	.	.	.	.	.	.	.	.	.	.	.	.	.	.	.
.	.	.	.	.	.	.	.	.	.	.	.	.	32Re/_	.	.	.	.	.	.	.	.	.	.	.	.	.	.	.	.	.	16G#X	.	.	.	.	.	16d#X	.	.	.	.	.	.	.	.	.
.	.	.	.	.	.	.	.	.	.	.	.	.	32Re/_	.	.	.	.	.	.	.	.	.	.	.	.	.	.	.	.	.	.	.	.	.	.	.	.	.	.	.	.	.	.	.	.	.
.	.	.	32%3Re^/	.	.	.	.	.	.	.	.	.	32Re/_	.	.	(16%3c^	.	.	.	.	.	.	.	.	.	.	.	.	.	.	16AJJ	.	.	.	.	.	16eJJ	.	.	.	.	.	.	.	.	.
.	.	.	.	.	.	.	.	.	.	.	.	.	32Re/_	.	.	.	.	.	.	.	.	.	.	.	.	.	.	.	.	.	.	.	.	.	.	.	.	.	.	.	.	.	.	.	.	.
.	.	.	.	.	.	.	.	.	.	.	.	.	32Re/_	.	.	.	.	.	.	.	.	.	.	16eeLL]	.	16aaLL]	.	8ee-]	.	.	[4B)	.	.	.	.	.	[4f)	.	16aLL]	.	.	.	.	.	16eeeLL]	.
.	.	.	32%3r	.	.	.	.	.	.	.	.	.	32Re/_	.	.	.	.	.	.	.	.	.	.	.	.	.	.	.	.	.	.	.	.	.	.	.	.	.	.	.	.	.	.	.	.	.
.	.	.	.	.	.	.	.	.	.	.	.	.	32Re/_	.	.	.	.	.	.	.	.	.	.	(16cc#X	.	(16ff#X	.	.	.	.	.	.	.	.	.	.	.	.	(16f#X	.	.	.	.	.	(16ccc#X	.
.	.	.	.	.	.	.	.	.	.	.	.	.	32Re/_	.	.	.	.	.	.	.	.	.	.	.	.	.	.	.	.	.	.	.	.	.	.	.	.	.	.	.	.	.	.	.	.	.
.	.	.	32%3Re^/	.	.	.	.	.	.	.	.	.	32Re/_	.	.	16%3A^	.	.	.	.	.	.	.	16dd	.	16gg	.	8cc	-que	.	.	.	.	.	.	.	.	.	16g	.	.	.	.	.	16ddd	.
.	.	.	.	.	.	.	.	.	.	.	.	.	32Re/_	.	.	.	.	.	.	.	.	.	.	.	.	.	.	.	.	.	.	.	.	.	.	.	.	.	.	.	.	.	.	.	.	.
.	.	.	.	.	.	.	.	.	.	.	.	.	32Re/_	.	.	.	.	.	.	.	.	.	.	16dd#XJJ	.	16gg#XJJ	.	.	.	.	.	.	.	.	.	.	.	.	16g#XJJ	.	.	.	.	.	16ddd#XJJ	.
.	.	.	32%3r	.	.	.	.	.	.	.	.	.	32Re/_	.	.	.	.	.	.	.	.	.	.	.	.	.	.	.	.	.	.	.	.	.	.	.	.	.	.	.	.	.	.	.	.	.
.	.	.	.	.	.	.	.	.	.	.	.	.	32Re/_	.	.	.	.	8e]	.	8BB]	.	8D#]	.	[4ee^)	.	[4aa^)	.	[4een	tour-	.	16BLL]	.	8r	.	8r	.	16fLL]	.	[4a^)	.	8r	fff	.	.	[4eee^)	.
.	.	.	.	.	.	.	.	.	.	.	.	.	32Re/_	.	.	.	.	.	.	.	.	.	.	.	.	.	.	.	.	.	.	.	.	.	.	.	.	.	.	.	.	.	.	.	.	.
.	.	.	32%3Re/	.	.	.	.	.	.	.	.	.	32Re/_	.	.	16%3d^	.	.	.	.	.	.	.	.	.	.	.	.	.	.	(16Gn	.	.	.	.	.	(16dn	.	.	.	.	.	.	.	.	.
.	.	.	.	.	.	.	.	.	.	.	.	.	32Re/_	.	.	.	.	.	.	.	.	.	.	.	.	.	.	.	.	.	.	.	.	.	.	.	.	.	.	.	.	.	.	.	.	.
.	.	.	.	.	.	.	.	.	.	.	.	.	32Re/_	.	.	.	.	8r	.	8r	.	8r	.	.	.	.	.	.	.	.	16G#X	.	[8b^	fff	[8e^	fff	16d#X	.	.	.	[8dd#X^	.	.	.	.	.
.	.	.	32%3r	.	.	.	.	.	.	.	.	.	32Re/_	.	.	.	.	.	.	.	.	.	.	.	.	.	.	.	.	.	.	.	.	.	.	.	.	.	.	.	.	.	.	.	.	.
.	.	.	.	.	.	.	.	.	.	.	.	.	32Re/_	.	.	.	.	.	.	.	.	.	.	.	.	.	.	.	.	.	16AJJ	.	.	.	.	.	16eJJ	.	.	.	.	.	.	.	.	.
.	.	.	.	.	.	.	.	.	.	.	.	.	32Re/_JJJ	.	.	.	.	.	.	.	.	.	.	.	.	.	.	.	.	.	.	.	.	.	.	.	.	.	.	.	.	.	.	.	.	.
=5	=5	=5	=5	=5	=5	=5	=5	=5	=5	=5	=5	=5	=5	=5	=5	=5	=5	=5	=5	=5	=5	=5	=5	=5	=5	=5	=5	=5	=5	=5	=5	=5	=5	=5	=5	=5	=5	=5	=5	=5	=5	=5	=5	=5	=5	=5
*	*	*	*	*	*	*	*	*	*	*	*	*	*	*	*	*	*	*^	*	*	*	*	*	*	*	*	*	*	*	*	*	*	*	*	*	*	*	*	*	*	*	*	*	*	*	*
!LO:TX:a:i:t=   moyen(medium)	!	!	!	!	!	!	!	!	!	!	!	!	!	!	!	!	!	!	!	!	!	!	!	!	!	!	!	!	!	!	!	!	!	!	!	!	!	!	!	!	!	!	!	!	!	!	!
4%3r	4%3r	.	4%3r	.	4%3r	.	4%3r	.	4%3r	.	16%3r	.	32Re/]LLL	.	4%3r	16%3A)	.	[8eL	8r	.	2.BB	.	2.D#X	.	16eeLL]	.	16aaLL]	.	4ee]	.	.	[4B-X^)	.	4b]	.	4e]	.	[4f^)	.	16aLL]	.	4dd#X]	.	4%3r	.	16eeeLL]	.
.	.	.	.	.	.	.	.	.	.	.	.	.	32Re/]	.	.	.	.	.	.	.	.	.	.	.	.	.	.	.	.	.	.	.	.	.	.	.	.	.	.	.	.	.	.	.	.	.	.
.	.	.	.	.	.	.	.	.	.	.	.	.	32Re/]	.	.	.	.	.	.	.	.	.	.	.	(16cc#X	.	(16ff#X	.	.	.	.	.	.	.	.	.	.	.	.	(16f#X	.	.	.	.	.	(16ccc#X	.
.	.	.	.	.	.	.	.	.	.	.	.	.	32Re/]	.	.	.	.	.	.	.	.	.	.	.	.	.	.	.	.	.	.	.	.	.	.	.	.	.	.	.	.	.	.	.	.	.	.
*	*	*	*	*	*	*	*	*	*	*	*	*	*	*	*	*	*	*v	*v	*	*	*	*	*	*	*	*	*	*	*	*	*	*	*	*	*	*	*	*	*	*	*	*	*	*	*	*
.	.	.	.	.	.	.	.	.	.	.	.	.	32Re/]	.	.	.	.	[8EJ 8e_	.	.	.	.	.	16dd	.	16gg	.	.	.	.	.	.	.	.	.	.	.	.	16g	.	.	.	.	.	16ddd	.
.	.	.	.	.	.	.	.	.	.	.	.	.	32Re/]	.	.	.	.	.	.	.	.	.	.	.	.	.	.	.	.	.	.	.	.	.	.	.	.	.	.	.	.	.	.	.	.	.
.	.	.	.	.	.	.	.	.	.	.	8qRe/	.	.	.	.	.	.	.	.	.	.	.	.	.	.	.	.	.	.	.	.	.	.	.	.	.	.	.	.	.	.	.	.	.	.	.
.	.	.	.	.	.	.	.	.	.	.	32%3Re/	.	32Re/]	.	.	(16%3c^	.	.	.	.	.	.	.	16dd#XJJ	.	16gg#XJJ	.	.	.	.	.	.	.	.	.	.	.	.	16g#XJJ	.	.	.	.	.	16ddd#XJJ	.
.	.	.	.	.	.	.	.	.	.	.	.	.	32Re/]	.	.	.	.	.	.	.	.	.	.	.	.	.	.	.	.	.	.	.	.	.	.	.	.	.	.	.	.	.	.	.	.	.
.	.	.	.	.	.	.	.	.	.	.	.	.	32Re/]	.	.	.	.	2E] 2e]	.	.	.	.	.	[4ee^)	.	[4aa^)	.	4b-X	-ne	.	16B-LL]	.	12b'L	.	12e'L	.	16fLL]	.	[4a^)	.	12dd#'L	.	.	.	[4eee^)	.
.	.	.	.	.	.	.	.	.	.	.	32%3r	.	32Re/]	.	.	.	.	.	.	.	.	.	.	.	.	.	.	.	.	.	.	.	.	.	.	.	.	.	.	.	.	.	.	.	.	.
.	.	.	.	.	.	.	.	.	.	.	.	.	32Re/]	.	.	.	.	.	.	.	.	.	.	.	.	.	.	.	.	.	(16G	.	.	.	.	.	(16d	.	.	.	.	.	.	.	.	.
.	.	.	.	.	.	.	.	.	.	.	.	.	.	.	.	.	.	.	.	.	.	.	.	.	.	.	.	.	.	.	.	.	12b'	.	12e'	.	.	.	.	.	12dd#'	.	.	.	.	.
.	.	.	.	.	.	.	.	.	.	.	.	.	32Re/]	.	.	.	.	.	.	.	.	.	.	.	.	.	.	.	.	.	.	.	.	.	.	.	.	.	.	.	.	.	.	.	.	.
.	.	.	.	.	.	.	.	.	.	.	8qRe/	.	.	.	.	.	.	.	.	.	.	.	.	.	.	.	.	.	.	.	.	.	.	.	.	.	.	.	.	.	.	.	.	.	.	.
.	.	.	.	.	.	.	.	.	.	.	32%3Re/	.	32Re/]	.	.	16%3A^	.	.	.	.	.	.	.	.	.	.	.	.	.	.	16G#X	.	.	.	.	.	16d#X	.	.	.	.	.	.	.	.	.
.	.	.	.	.	.	.	.	.	.	.	.	.	32Re/]	.	.	.	.	.	.	.	.	.	.	.	.	.	.	.	.	.	.	.	.	.	.	.	.	.	.	.	.	.	.	.	.	.
.	.	.	.	.	.	.	.	.	.	.	.	.	.	.	.	.	.	.	.	.	.	.	.	.	.	.	.	.	.	.	.	.	[12b'J	.	[12e'J	.	.	.	.	.	[12dd#'J	.	.	.	.	.
.	.	.	.	.	.	.	.	.	.	.	.	.	32Re/]	.	.	.	.	.	.	.	.	.	.	.	.	.	.	.	.	.	16AJJ	.	.	.	.	.	16eJJ	.	.	.	.	.	.	.	.	.
.	.	.	.	.	.	.	.	.	.	.	32%3r	.	32Re/]	.	.	.	.	.	.	.	.	.	.	.	.	.	.	.	.	.	.	.	.	.	.	.	.	.	.	.	.	.	.	.	.	.
.	.	.	.	.	.	.	.	.	.	.	.	.	32Re/]	.	.	.	.	.	.	.	.	.	.	16eeLL]	.	16aaLL]	.	(4g	dans	.	[4B-X^)	.	4b]	.	4e]	.	[4f^)	.	16aLL]	.	4dd#]	.	.	.	16eeeLL]	.
.	.	.	.	.	.	.	.	.	.	.	.	.	32Re/]	.	.	.	.	.	.	.	.	.	.	.	.	.	.	.	.	.	.	.	.	.	.	.	.	.	.	.	.	.	.	.	.	.
.	.	.	.	.	.	.	.	.	.	.	8qRe/	.	.	.	.	.	.	.	.	.	.	.	.	.	.	.	.	.	.	.	.	.	.	.	.	.	.	.	.	.	.	.	.	.	.	.
.	.	.	.	.	.	.	.	.	.	.	32%3Re/	.	32Re/]	.	.	16%3d^)	.	.	.	.	.	.	.	(16cc#X	.	(16ff#	.	.	.	.	.	.	.	.	.	.	.	.	(16f#X	.	.	.	.	.	(16ccc#	.
.	.	.	.	.	.	.	.	.	.	.	.	.	32Re/]	.	.	.	.	.	.	.	.	.	.	.	.	.	.	.	.	.	.	.	.	.	.	.	.	.	.	.	.	.	.	.	.	.
.	.	.	.	.	.	.	.	.	.	.	.	.	32Re/]	.	.	.	.	.	.	.	.	.	.	16ddn	.	16ggn	.	.	.	.	.	.	.	.	.	.	.	.	16g	.	.	.	.	.	16dddn	.
.	.	.	.	.	.	.	.	.	.	.	32%3r	.	32Re/]	.	.	.	.	.	.	.	.	.	.	.	.	.	.	.	.	.	.	.	.	.	.	.	.	.	.	.	.	.	.	.	.	.
.	.	.	.	.	.	.	.	.	.	.	.	.	32Re/]	.	.	.	.	.	.	.	.	.	.	16dd#XJJ	.	16gg#XJJ	.	.	.	.	.	.	.	.	.	.	.	.	16g#XJJ	.	.	.	.	.	16ddd#XJJ	.
.	.	.	.	.	.	.	.	.	.	.	.	.	32Re/]JJJ	.	.	.	.	.	.	.	.	.	.	.	.	.	.	.	.	.	.	.	.	.	.	.	.	.	.	.	.	.	.	.	.	.
=6	=6	=6	=6	=6	=6	=6	=6	=6	=6	=6	=6	=6	=6	=6	=6	=6	=6	=6	=6	=6	=6	=6	=6	=6	=6	=6	=6	=6	=6	=6	=6	=6	=6	=6	=6	=6	=6	=6	=6	=6	=6	=6	=6	=6	=6	=6
!	!	!	!	!	!	!	!LO:TX:a:i:t=suspendue (baguette)	!	!	!	!	!	!	!	!	!	!	!	!	!	!	!	!	!	!	!	!	!	!	!	!	!	!	!	!	!	!	!	!	!	!	!	!	!	!	!
.	.	.	.	.	.	.	.	.	.	.	8qRe/	p	.	.	.	.	.	.	.	.	.	.	.	.	.	.	.	.	.	.	.	.	.	.	.	.	.	.	.	.	.	.	.	.	.	.
*stria1	*	*	*	*	*stria1	*	*	*	*	*	*	*	*	*	*	*	*	*	*	*	*	*	*	*	*	*	*	*	*	*	*	*	*	*	*	*	*	*	*	*	*	*	*	*	*	*
[2Re/	4%3r	.	2r	.	4r	.	4%3r	.	4%3r	.	8.Re/L	.	4r	.	4%3r	4%3r	.	8.f#XL	.	8.GG#XL	.	8.C##XL	.	8ee^)	.	8aa^)	.	4b	la	.	(4B-X]	.	8.g#X^L	.	8.f^L	.	(4f]	.	8a^)	.	8.ddn^L	.	4%3r	.	8eee^)	.
.	.	.	.	.	.	.	.	.	.	.	.	.	.	.	.	.	.	.	.	.	.	.	.	8r	.	8r	.	.	.	.	.	.	.	.	.	.	.	.	8r	.	.	.	.	.	8r	.
.	.	.	.	.	.	.	.	.	.	.	16Re/Jk	.	.	.	.	.	.	16f#Jk	.	16GG#Jk	.	16CJk	.	.	.	.	.	.	.	.	.	.	16g#Jk	.	16fJk	.	.	.	.	.	16ddJk	.	.	.	.	.
.	.	.	.	.	12Re/L	pp	.	.	.	.	16Re/	.	32Re/LLL	.	.	.	.	4E 4e	.	4BB	.	2D#X	.	4r	.	4r	.	4cc#X	nuit	.	[4D)	.	12bL	.	12eL	.	[4G#X)	.	4r	.	12dd#XL	.	.	.	4r	.
.	.	.	.	.	.	.	.	.	.	.	.	.	32Re/	.	.	.	.	.	.	.	.	.	.	.	.	.	.	.	.	.	.	.	.	.	.	.	.	.	.	.	.	.	.	.	.	.
.	.	.	.	.	.	.	.	.	.	.	16r	.	32Re/	.	.	.	.	.	.	.	.	.	.	.	.	.	.	.	.	.	.	.	.	.	.	.	.	.	.	.	.	.	.	.	.	.
.	.	.	.	.	12Re/	.	.	.	.	.	.	.	.	.	.	.	.	.	.	.	.	.	.	.	.	.	.	.	.	.	.	.	12b	.	12e	.	.	.	.	.	12dd#	.	.	.	.	.
.	.	.	.	.	.	.	.	.	.	.	.	.	32Re/	.	.	.	.	.	.	.	.	.	.	.	.	.	.	.	.	.	.	.	.	.	.	.	.	.	.	.	.	.	.	.	.	.
.	.	.	.	.	.	.	.	.	.	.	8r	.	32Re/	.	.	.	.	.	.	.	.	.	.	.	.	.	.	.	.	.	.	.	.	.	.	.	.	.	.	.	.	.	.	.	.	.
.	.	.	.	.	.	.	.	.	.	.	.	.	32Re/	.	.	.	.	.	.	.	.	.	.	.	.	.	.	.	.	.	.	.	.	.	.	.	.	.	.	.	.	.	.	.	.	.
.	.	.	.	.	8qRe/	.	.	.	.	.	.	.	.	.	.	.	.	.	.	.	.	.	.	.	.	.	.	.	.	.	.	.	.	.	.	.	.	.	.	.	.	.	.	.	.	.
.	.	.	.	.	12Re^/J	.	.	.	.	.	.	.	.	.	.	.	.	.	.	.	.	.	.	.	.	.	.	.	.	.	.	.	12bJ	.	12eJ	.	.	.	.	.	[12dd#^J	.	.	.	.	.
.	.	.	.	.	.	.	.	.	.	.	.	.	32Re/	.	.	.	.	.	.	.	.	.	.	.	.	.	.	.	.	.	.	.	.	.	.	.	.	.	.	.	.	.	.	.	.	.
.	.	.	.	.	.	.	.	.	.	.	.	.	32Re/	.	.	.	.	.	.	.	.	.	.	.	.	.	.	.	.	.	.	.	.	.	.	.	.	.	.	.	.	.	.	.	.	.
*	*	*	*tremolo	*	*	*	*	*	*	*	*	*	*	*	*	*	*	*	*	*	*	*	*	*	*	*	*	*	*	*	*	*	*	*	*	*	*	*	*	*	*	*	*	*	*	*
*	*	*	*	*	*	*	*	*	*	*	*	*	*	*	*	*	*	*	*	*	*	*	*	*	*	*	*	*	*	*	*	*	*tremolo	*	*	*	*	*	*	*	*	*	*	*	*	*
*	*	*	*	*	*	*	*	*	*	*	*	*	*	*	*	*	*	*	*	*	*	*	*	*	*	*	*	*	*	*	*	*	*	*	*tremolo	*	*	*	*	*	*	*	*	*	*	*
8Re/]	.	.	32Re/LLL	pp	4r	.	.	.	.	.	4r	.	32Re/	.	.	.	.	8b-X	.	8C	.	.	.	4r	.	4r	.	4ff	de	.	8D]	.	32cc^	.	32b-^	.	8G#]	.	4r	.	4dd#]	.	.	.	4r	.
.	.	.	32Re/	.	.	.	.	.	.	.	.	.	32Re/	.	.	.	.	.	.	.	.	.	.	.	.	.	.	.	.	.	.	.	32cc^	.	32b-^	.	.	.	.	.	.	.	.	.	.	.
.	.	.	32Re/	.	.	.	.	.	.	.	.	.	32Re/	.	.	.	.	.	.	.	.	.	.	.	.	.	.	.	.	.	.	.	32cc^	.	32b-^	.	.	.	.	.	.	.	.	.	.	.
.	.	.	32Re/	.	.	.	.	.	.	.	.	.	32Re/	.	.	.	.	.	.	.	.	.	.	.	.	.	.	.	.	.	.	.	32cc^	.	32b-^	.	.	.	.	.	.	.	.	.	.	.
*	*	*	*	*	*	*	*	*	*	*	*	*	*	*	*	*	*	*	*	*	*	*	*	*	*	*	*	*	*	*	*	*	*	*	*Xtremolo	*	*	*	*	*	*	*	*	*	*	*
*	*	*	*	*	*	*	*	*	*	*	*	*	*	*	*	*	*	*	*	*	*	*	*	*	*	*	*	*	*	*	*	*	*Xtremolo	*	*	*	*	*	*	*	*	*	*	*	*	*
8r	.	.	32Re/	.	.	.	.	.	.	.	.	.	32Re/	.	.	.	.	8r	.	8r	.	.	.	.	.	.	.	.	.	.	8r	.	8r	.	8r	.	8r	.	.	.	.	.	.	.	.	.
.	.	.	32Re/	.	.	.	.	.	.	.	.	.	32Re/	.	.	.	.	.	.	.	.	.	.	.	.	.	.	.	.	.	.	.	.	.	.	.	.	.	.	.	.	.	.	.	.	.
.	.	.	32Re/	.	.	.	.	.	.	.	.	.	32Re/	.	.	.	.	.	.	.	.	.	.	.	.	.	.	.	.	.	.	.	.	.	.	.	.	.	.	.	.	.	.	.	.	.
.	.	.	32Re/JJJ	.	.	.	.	.	.	.	.	.	32Re/JJJ	.	.	.	.	.	.	.	.	.	.	.	.	.	.	.	.	.	.	.	.	.	.	.	.	.	.	.	.	.	.	.	.	.
*	*	*	*	*	*	*	*	*	*	*	*	*	*Xtremolo	*	*	*	*	*	*	*	*	*	*	*	*	*	*	*	*	*	*	*	*	*	*	*	*	*	*	*	*	*	*	*	*	*
*	*	*	*Xtremolo	*	*	*	*	*	*	*	*	*	*	*	*	*	*	*	*	*	*	*	*	*	*	*	*	*	*	*	*	*	*	*	*	*	*	*	*	*	*	*	*	*	*	*
=7	=7	=7	=7	=7	=7	=7	=7	=7	=7	=7	=7	=7	=7	=7	=7	=7	=7	=7	=7	=7	=7	=7	=7	=7	=7	=7	=7	=7	=7	=7	=7	=7	=7	=7	=7	=7	=7	=7	=7	=7	=7	=7	=7	=7	=7	=7
!	!	!	!	!	!	!	!	!	!	!	!	!	!LO:TX:t=[quarter]=106	!	!	!	!	!LO:TX:a:i:t=staccatissimo	!	!	!	!LO:TX:a:i:t=staccatissimo	!	!	!	!	!	!	!	!	!	!	!	!	!	!	!	!	!	!	!	!	!	!	!LO:TX:t=[quarter]=106	!
.	.	.	.	.	.	.	.	.	.	.	8qRe/	f	.	.	.	.	.	.	.	.	.	.	.	.	.	.	.	.	.	.	.	.	.	.	.	.	.	.	.	.	.	.	.	.	.	.
*	*stria1	*	*	*	*	*	*	*	*	*	*	*	*	*	*	*	*	*	*	*	*	*	*	*	*	*	*	*	*	*	*	*	*	*	*	*	*	*	*	*	*	*	*	*	*	*
*	*	*	*	*	*	*	*	*	*	*	*	*	*	*	*	*clefF4	*	*	*	*	*	*	*	*	*	*	*	*	*	*	*	*	*	*	*	*	*	*	*	*	*	*	*	*	*	*
4%3r	20Re'/LL	f	4r	.	4r	.	4Re/	f	4Re/	f	16Re/LL	.	4%3r	.	2.AAA	16FFvLL 16C#X	.	16ALL	fff	16FFnLL	fff	16C#XLL	fff	20bb-X'LL	fff	20ddd'LL	fff	4.a-X	fiè-	.	4G^	fff	4f#X^	fff	4BX^	fff	16fLL	fff	16aLL	fff	16cc#XLL	fff	20dd'LL	fff	20bbb-X'LL	fff
.	20Re'/	.	.	.	.	.	.	.	.	.	.	.	.	.	.	.	.	.	.	.	.	.	.	20bb-'J	.	20ddd'J	.	.	.	.	.	.	.	.	.	.	.	.	.	.	.	.	20dd'	.	20bbb-'	.
.	.	.	.	.	.	.	.	.	.	.	16Re/	.	.	.	.	16FFv 16C#	.	16A	.	16FF	.	16C#	.	.	.	.	.	.	.	.	.	.	.	.	.	.	16f	.	16a	.	16cc#	.	.	.	.	.
.	20Re'/	.	.	.	.	.	.	.	.	.	.	.	.	.	.	.	.	.	.	.	.	.	.	10.een^J	<	10.eee-X^J	<	.	.	.	.	.	.	.	.	.	.	.	.	.	.	.	20ee-X^	.	20eeen^	.
.	.	.	.	.	.	.	.	.	.	.	16Re/	.	.	.	.	16FFv 16C#	.	16A	.	16FF	.	16C#	.	.	.	.	.	.	.	.	.	.	.	.	.	.	16f	.	16a	.	16cc#	.	.	.	.	.
.	20Re'/	.	.	.	.	.	.	.	.	.	.	.	.	.	.	.	.	.	.	.	.	.	.	.	.	.	.	.	.	.	.	.	.	.	.	.	.	.	.	.	.	.	20dd'	.	20bbb-'	.
.	.	.	.	.	.	.	.	.	.	.	16Re/JJ	.	.	.	.	16FFvJJ 16C#	.	16AJJ	.	16FFJJ	.	16C#JJ	.	.	.	.	.	.	.	.	.	.	.	.	.	.	16fJJ	.	16aJJ	.	16cc#JJ	.	.	.	.	.
.	20Re'/JJ	.	.	.	.	.	.	.	.	.	.	.	.	.	.	.	.	.	.	.	.	.	.	.	.	.	.	.	.	.	.	.	.	.	.	.	.	.	.	.	.	.	20dd'JJ	.	20bbb-'JJ	.
!	!	!	!	!	!	!	!	!	!	!	!	!	!	!	!	!LO:TX:b:t=sfff	!	!	!	!	!	!	!	!	!	!	!	!	!	!	!	!	!	!	!	!	!	!	!	!	!	!	!	!	!	!
.	20Re'/LL	.	4r	.	16Re/KL	f	4r	.	4r	.	4r	.	.	.	.	16FFvKL 16C#	.	16AKL	.	16FFKL	.	16C#KL	.	20bb-X'LL	[	20ddd'LL	[	.	.	.	4G'	.	4f#'	.	4B'	.	16fKL	.	16aKL	.	16cc#KL	.	20dd'LL	.	20bbb-'LL	.
.	20Re'/	.	.	.	.	.	.	.	.	.	.	.	.	.	.	.	.	.	.	.	.	.	.	20bb-'J	.	20ddd'J	.	.	.	.	.	.	.	.	.	.	.	.	.	.	.	.	20dd'	.	20bbb-'	.
!	!	!	!	!	!	!	!	!	!	!	!	!	!	!	!	!	!	!LO:TX:b:t=sfff	!	!LO:TX:b:t=sfff	!	!LO:TX:b:t=sfff	!	!	!	!	!	!	!	!	!	!	!	!	!	!	!	!	!	!	!	!	!	!	!	!
.	.	.	.	.	8.Re^/J	.	.	.	.	.	.	.	.	.	.	8.FF^J 8.C#	.	8.A^J	.	8.FF^J	.	8.C#^J	.	.	.	.	.	.	.	.	.	.	.	.	.	.	8.f^J	.	8.a^J	.	8.cc#^J	.	.	.	.	.
.	20Re'/	.	.	.	.	.	.	.	.	.	.	.	.	.	.	.	.	.	.	.	.	.	.	10.ee^J	<	10.eee-X^J	<	.	.	.	.	.	.	.	.	.	.	.	.	.	.	.	20ee-^	.	20eee^	.
.	.	.	.	.	.	.	.	.	.	.	.	.	.	.	.	.	.	.	.	.	.	.	.	.	.	.	.	4.ccn)	-vre	.	.	.	.	.	.	.	.	.	.	.	.	.	.	.	.	.
.	20Re'/	.	.	.	.	.	.	.	.	.	.	.	.	.	.	.	.	.	.	.	.	.	.	.	.	.	.	.	.	.	.	.	.	.	.	.	.	.	.	.	.	.	20dd'	.	20bbb-'	.
.	20Re'/JJ	.	.	.	.	.	.	.	.	.	.	.	.	.	.	.	.	.	.	.	.	.	.	.	.	.	.	.	.	.	.	.	.	.	.	.	.	.	.	.	.	.	20dd'JJ	.	20bbb-'JJ	.
.	20Re'/LL	.	16Re/LL	fff	4r	.	[4Re/	.	4Re/	.	4r	.	.	.	.	16FFvLL 16C#	.	16ALL	.	16FFLL	.	16C#LL	.	20bb-X'LL	[	20ddd'LL	[	.	.	.	4G^	.	4f#^	.	4B^	.	16fLL	.	16aLL	.	16cc#LL	.	20dd'LL	.	20bbb-'LL	.
.	20Re'/	.	.	.	.	.	.	.	.	.	.	.	.	.	.	.	.	.	.	.	.	.	.	20bb-'J	.	20ddd'J	.	.	.	.	.	.	.	.	.	.	.	.	.	.	.	.	20dd'	.	20bbb-'	.
!	!	!	!	!	!	!	!	!	!	!	!	!	!	!	!	!LO:TX:b:t=sfff	!	!	!	!	!	!	!	!	!	!	!	!	!	!	!	!	!	!	!	!	!	!	!	!	!	!	!	!	!	!
.	.	.	16Re/J	.	.	.	.	.	.	.	.	.	.	.	.	16FFvJ 16C#	.	16AJ	.	16FFJ	.	16C#J	.	.	.	.	.	.	.	.	.	.	.	.	.	.	16fJ	.	16aJ	.	16cc#J	.	.	.	.	.
.	20Re'/	.	.	.	.	.	.	.	.	.	.	.	.	.	.	.	.	.	.	.	.	.	.	10.ee^J	< [	10.eee-X^J	< [	.	.	.	.	.	.	.	.	.	.	.	.	.	.	.	20ee-^	.	20eee^	.
!	!	!	!	!	!	!	!	!	!	!	!	!	!	!	!	!	!	!LO:TX:b:t=sfff	!	!LO:TX:b:t=sfff	!	!LO:TX:b:t=sfff	!	!	!	!	!	!	!	!	!	!	!	!	!	!	!	!	!	!	!	!	!	!	!	!
.	.	.	8Re^/J	.	.	.	.	.	.	.	.	.	.	.	.	8FF^J 8C#	.	8A^J	.	8FF^J	.	8C#^J	.	.	.	.	.	.	.	.	.	.	.	.	.	.	8f^J	.	8a^J	.	8cc#^J	.	.	.	.	.
.	20Re'/	.	.	.	.	.	.	.	.	.	.	.	.	.	.	.	.	.	.	.	.	.	.	.	.	.	.	.	.	.	.	.	.	.	.	.	.	.	.	.	.	.	20dd'	.	20bbb-'	.
.	20Re'/JJ	.	.	.	.	.	.	.	.	.	.	.	.	.	.	.	.	.	.	.	.	.	.	.	.	.	.	.	.	.	.	.	.	.	.	.	.	.	.	.	.	.	20dd'JJ	.	20bbb-'JJ	.
*	*	*	*	*	*	*	*	*	*	*	*	*	*	*	*	*clefG2	*	*	*	*	*	*	*	*	*	*	*	*	*	*	*	*	*	*	*	*	*	*	*	*	*	*	*	*	*	*
=	=	=	=	=	=	=	=	=	=	=	=	=	=	=	=	=	=	=	=	=	=	=	=	=	=	=	=	=	=	=	=	=	=	=	=	=	=	=	=	=	=	=	=	=	=	=
*-	*-	*-	*-	*-	*-	*-	*-	*-	*-	*-	*-	*-	*-	*-	*-	*-	*-	*-	*-	*-	*-	*-	*-	*-	*-	*-	*-	*-	*-	*-	*-	*-	*-	*-	*-	*-	*-	*-	*-	*-	*-	*-	*-	*-	*-	*-
!!!system-decoration: [(s1,s2,s3,s4,s5)][(s6,s7,s8)][(s9)][(s10,s11,s12,s13,s14)][({(s15,s16)})][(s17,s18,s19,s20,s21,s22,s23,s24)]
